!! 00008] TT[TB
!! Eigene Aufnahme
!!!OTL: Liaokuo de caoyuan
!!!ARE: Neimeng Hulunbeir
!! Ethnic Group: Menggu
!! IV, 300 (2)
!!!SCT: C0193
!!!YEM: Copyright 1995, estate of Helmut Schaffrath.
**kern
*ICvox
*Ivox
!! Mixed meters:  3/4; 4/4
*M4/4
*k[]
*C:
{4.a
8dd
8cc
8ee
=1
4.dd
24cc
24dd
24cc
8a
8dd}
=2
{8cc
16a
16g
8f
8g
8a
8dd
=3
2cc
8a
8dd
=4
8cc
4c
8d
8c
8r}
=5
{8d
16f
16g
2cc
=6
[2dd
8dd]
8ff}
=7
{8f
16a
16g
8g
4f
16d
16c
=8
8A
16c
16d
4.g
8cc
=9
8f
8d
8g
8f
4d}
==
!!!AGN: Mu ge. NanÅ siqing
!! als sehr typisch bezeichnet Herr Jiang eher die Melodie in IV (200)
!!    (2). Vereinfacht notiert. Einige Violinkonzerte wurden nach dieser
!!    Melodie arrangiert. WEITERE AUFNAHME VORHANDEN. DOUBLETTE?
!!    Die Technik der gesungenen Tonrepititionen wird von den Han als
!!    "Husten" bezeichnet, mit dem man vielleicht das Wiehern des
!!    Pferdes nachahmt. Saenger: Chao Lun Batou; VARIANTE. Tremoli
!!    +++ Grundton wechselt von C nach F!! +++
!!!ONB: ESAC (Essen Associative Code) Database: CHINA
!!!AMT: irregular
!!!AIN: vox
!!!EED: Helmut Schaffrath
!!!EEV: 1.0
*-
